**kern	**silbe	**harmony	**chordsym	**phrase	**timestamp	**leadinstrument
*ICvox	*	*M12/8	*M12/8	*	*	*
*	*	*A:	*A:	*	*	*
=1	=1	=1	=1	=1	=1	=1
*A:	*	*	*	*	*	*
*M12/8	*	*	*	*	*	*
*clefC3	*	*	*	*	*	*
4.r	.	1r;	r	.	0	r
4.e	I	.	.	.	.	.
8dq	_	.	.	.	.	.
4.e	cried	.	.	.	.	.
=1	=1	=1	=1	=1	=1	=1
*	*	*>A_intro	*>A_intro	*>A_intro	*>A_intro	*>A_intro
.	.	1.EMm	E:7 (E G# B D)	newline	0.464	r
8dq	_	.	.	.	.	.
4e	a	.	.	.	.	.
16c#	tear,	.	.	.	.	.
16e	_	.	.	.	.	.
=2	=2	=2	=2	=2	=2	=2
4.c#	_	.	.	.	.	.
4.r	_	.	.	.	.	.
4.r	.	.	.	.	.	.
.	.	1r;	r	.	.	r
8c#	be-	.	.	.	.	.
8B	-cause	.	.	.	.	.
16c#	of	.	.	.	.	.
16c#	y-	.	.	.	.	.
=3	=3	=3	=3	=3	=3	=3
4.d	-you	.	.	.	.	.
4.r	.	.	.	.	.	.
=2	=2	=2	=2	=2	=2	=2
*	*	*>B_verse	*>B_verse	*>B_verse	*>B_verse	*>B_verse
.	.	4.AM	A:maj (A C# E)	newline	5.573	voice
4.r	.	.	.	.	.	.
.	.	4.AMM	A:maj7 (A C# E G#)	.	.	voice
8f#	I	.	.	.	.	.
8f#	cried	4.AM	A:maj6 (A C# E F#)	.	.	voice
8f#	a	.	.	.	.	.
=4	=4	=4	=4	=4	=4	=4
8f#	tear,	.	.	.	.	.
[4d	_	4.AM	A:maj (A C# E)	.	.	voice
4d]	_	.	.	.	.	.
=3	=3	=3	=3	=3	=3	=3
.	.	1.EMm	E:7 (E G# B D)	.	.	voice
8r	_	.	.	.	.	.
4.r	.	.	.	.	.	.
8B	be-	.	.	.	.	.
8c#	-cause	.	.	.	.	.
8d	we're	.	.	.	.	.
=5	=5	=5	=5	=5	=5	=5
16e	through	.	.	.	.	.
8f#	_	.	.	.	.	.
[8.e	_	.	.	.	.	.
4e]	_	.	.	.	.	.
=4	=4	=4	=4	=4	=4	=4
.	.	1.EMm	E:7 (E G# B D)	.	.	voice
8r	.	.	.	.	.	.
4.r	.	.	.	.	.	.
8e	I	.	.	.	.	.
8e	cried	.	.	.	.	.
8e	a	.	.	.	.	.
=6	=6	=6	=6	=6	=6	=6
[4.a	tear,	.	.	.	.	.
4a]	_	.	.	.	.	.
=5	=5	=5	=5	=5	=5	=5
.	.	4.AM	A:maj (A C# E)	.	.	voice
8r	_	.	.	.	.	.
8r	.	.	.	.	.	.
16f#	what	4.AM	A:sus4 (A D E)	.	.	voice
[8.f#	else	.	.	.	.	.
16f#]	_	.	.	.	.	.
16e	_	.	.	.	.	.
8f#	_	2.AM	A:maj (A C# E)	.	.	voice
8eq	_	.	.	.	.	.
8f#	could	.	.	.	.	.
=7	=7	=7	=7	=7	=7	=7
8e	I	.	.	.	.	.
[4d	do,	.	.	.	.	.
4.d]	_	.	.	.	.	.
=6	=6	=6	=6	=6	=6	=6
.	.	2.AM	A:maj (A C# E)	newline	22.414	voice
4.r	_	.	.	.	.	.
8B	but	.	.	.	.	.
8A	cry	2.AMm	A:7 (A C# E G)	.	.	voice
8A	and	.	.	.	.	.
=8	=8	=8	=8	=8	=8	=8
8eq	_	.	.	.	.	.
8f#	sigh,	.	.	.	.	.
[4e	_	.	.	.	.	.
4.e]	_	.	.	.	.	.
=7	=7	=7	=7	=7	=7	=7
.	.	1.DM	D:maj (D F# A)	.	.	voice
4.r	_	.	.	.	.	.
8B	for	.	.	.	.	.
8.c#	love	.	.	.	.	.
16B	of	.	.	.	.	.
=9	=9	=9	=9	=9	=9	=9
16c#Q	you	.	.	.	.	.
16BQ	_	.	.	.	.	.
2.A	_	.	.	.	.	.
=8	=8	=8	=8	=8	=8	=8
.	.	2.AM	A:maj (A C# E)	.	.	voice
4.r	.	.	.	.	.	.
8eq	_	.	.	.	.	.
8f#	I	.	.	.	.	.
8r	.	2.EMm	E:7 (E G# B D)	.	.	voice
8e	felt	.	.	.	.	.
=10	=10	=10	=10	=10	=10	=10
8c#	a	.	.	.	.	.
[4c#	tear,	.	.	.	.	.
8c#]	_	.	.	.	.	.
=9	=9	=9	=9	=9	=9	=9
4r	_	2.AM	A:maj (A C# E)	.	.	voice
4.r	.	.	.	.	.	.
8B#q	_	.	.	.	.	.
4c#	fall	.	.	.	.	.
.	.	2.EMm	E:7 (E G# B D)	.	.	voice
8B	in	.	.	.	.	.
=11	=11	=11	=11	=11	=11	=11
16.c#	my	.	.	.	.	.
[32%9d	heart	.	.	.	.	.
8.d]	_	.	.	.	.	.
=10	=10	=10	=10	=10	=10	=10
*	*	*>B_verse	*>B_verse	*>B_verse	*>B_verse	*>B_verse
.	.	4.AM	A:maj (A C# E)	newline	38.996	voice
16r	.	.	.	.	.	.
8r	.	.	.	.	.	.
4.r	.	.	.	.	.	.
.	.	4.AMM	A:maj7 (A C# E G#)	.	.	voice
8f#	You	.	.	.	.	.
8.f#	fooled	4.AM	A:maj6 (A C# E F#)	.	.	voice
[16f#	me	.	.	.	.	.
=12	=12	=12	=12	=12	=12	=12
8f#]	_	.	.	.	.	.
[4d	so,	4.AM	A:maj (A C# E)	.	.	voice
4.d]	_	.	.	.	.	.
=11	=11	=11	=11	=11	=11	=11
.	.	1.EMm	E:7 (E G# B D)	.	.	voice
4.r	_	.	.	.	.	.
8B	I	.	.	.	.	.
16c#	was-	.	.	.	.	.
8.d	-n't	.	.	.	.	.
=13	=13	=13	=13	=13	=13	=13
16e	smart	.	.	.	.	.
16f#	_	.	.	.	.	.
[4e	_	.	.	.	.	.
4.e]	_	.	.	.	.	.
=12	=12	=12	=12	=12	=12	=12
.	.	1.EMm	E:7 (E G# B D)	.	.	voice
4.r	.	.	.	.	.	.
8e	I	.	.	.	.	.
8e	can't	.	.	.	.	.
8e	be-	.	.	.	.	.
=14	=14	=14	=14	=14	=14	=14
2.a	-lieve	.	.	.	.	.
=13	=13	=13	=13	=13	=13	=13
.	.	4.AM	A:maj (A C# E)	.	.	voice
4.r	.	.	.	.	.	.
.	.	4.AM	A:sus4 (A D E)	.	.	voice
8f#	that	.	.	.	.	.
8.f#	we	2.AM	A:maj (A C# E)	.	.	voice
16e	_	.	.	.	.	.
=15	=15	=15	=15	=15	=15	=15
16f#	_	.	.	.	.	.
8e	must	.	.	.	.	.
[8.d	part	.	.	.	.	.
4.d]	_	.	.	.	.	.
=14	=14	=14	=14	=14	=14	=14
.	.	2.AM	A:maj (A C# E)	newline	55.434	voice
4.r	.	.	.	.	.	.
16g#Q	_	.	.	.	.	.
16f#Q	_	.	.	.	.	.
16.e	Come	.	.	.	.	.
8eq	_	.	.	.	.	.
16.f#	_	.	.	.	.	.
.	.	2.AMm	A:7 (A C# E G)	.	.	voice
16.a	_	.	.	.	.	.
8eq	_	.	.	.	.	.
16.f#	back	.	.	.	.	.
=16	=16	=16	=16	=16	=16	=16
16.a	to	.	.	.	.	.
[32%9e	stay,	.	.	.	.	.
4.e]	_	.	.	.	.	.
=15	=15	=15	=15	=15	=15	=15
.	.	1.DM	D:maj (D F# A)	.	.	voice
4.r	_	.	.	.	.	.
8B	let's	.	.	.	.	.
8c#	make	.	.	.	.	.
8B	a	.	.	.	.	.
=17	=17	=17	=17	=17	=17	=17
8c#	new	.	.	.	.	.
32c#	start	.	.	.	.	.
32B	_	.	.	.	.	.
[8.A	_	.	.	.	.	.
4.A]	_	.	.	.	.	.
=16	=16	=16	=16	=16	=16	=16
.	.	2.AM	A:maj (A C# E)	.	.	voice
2.r	.	.	.	.	.	.
.	.	2.EMm	E:7 (E G# B D)	.	.	voice
=18	=18	=18	=18	=18	=18	=18
1.r	.	.	.	.	.	.
=17	=17	=17	=17	=17	=17	=17
.	.	2.AM	A:maj (A C# E)	.	.	voice
.	.	2.AM	A:maj (E A C#)	.	.	voice
=19	=19	=19	=19	=19	=19	=19
1.r	.	.	.	.	.	.
=18	=18	=18	=18	=18	=18	=18
*	*	*>B_solo	*>B_solo	*>B_solo	*>B_solo	*>B_solo
.	.	4.AM	A:maj (A C# E)	newline	72.255	saxophone
.	.	4.AMM	A:maj7 (A C# E G#)	.	.	saxophone
.	.	4.AM	A:maj6 (A C# E F#)	.	.	saxophone
=20	=20	=20	=20	=20	=20	=20
1.r	.	.	.	.	.	.
.	.	4.AM	A:maj (A C# E)	.	.	saxophone
=19	=19	=19	=19	=19	=19	=19
.	.	1.EMm	E:7 (E G# B D)	.	.	saxophone
=21	=21	=21	=21	=21	=21	=21
1.r	.	.	.	.	.	.
=20	=20	=20	=20	=20	=20	=20
.	.	1.EMm	E:7 (E G# B D)	.	.	saxophone
=22	=22	=22	=22	=22	=22	=22
1.r	.	.	.	.	.	.
=21	=21	=21	=21	=21	=21	=21
.	.	4.AM	A:maj (A C# E)	.	.	saxophone
.	.	4.AM	A:sus4 (A D E)	.	.	saxophone
.	.	2.AM	A:maj (A C# E)	.	.	saxophone
=23	=23	=23	=23	=23	=23	=23
1.r	.	.	.	.	.	.
=22	=22	=22	=22	=22	=22	=22
.	.	2.AM	A:maj (A C# E)	newline	89.063	saxophone
.	.	2.AMm	A:7 (A C# E G)	.	.	saxophone
=24	=24	=24	=24	=24	=24	=24
1.r	.	.	.	.	.	.
=23	=23	=23	=23	=23	=23	=23
.	.	1.DM	D:maj (D F# A)	.	.	saxophone
=25	=25	=25	=25	=25	=25	=25
4.r	.	.	.	.	.	.
4.r	.	.	.	.	.	.
=24	=24	=24	=24	=24	=24	=24
.	.	2.AM	A:maj (A C# E)	.	.	saxophone
4r	.	.	.	.	.	.
16r	.	.	.	.	.	.
16e	I	.	.	.	.	.
8f#	_	.	.	.	.	.
8e	cried	2.EMm	E:7 (E G# B D)	.	.	saxophone
8c#	a	.	.	.	.	.
=26	=26	=26	=26	=26	=26	=26
8e	tear,	.	.	.	.	.
[4c#	_	.	.	.	.	.
4.c#]	_	.	.	.	.	.
=25	=25	=25	=25	=25	=25	=25
.	.	2.AM	A:maj (A C# E)	.	.	saxophone
4.r	_	.	.	.	.	.
8c#	be-	.	.	.	.	.
8B	-cause	2.EMm	E:7 (E G# B D)	.	.	saxophone
16c#	of	.	.	.	.	.
16c#	y-	.	.	.	.	.
=27	=27	=27	=27	=27	=27	=27
2.d	-you	.	.	.	.	.
=26	=26	=26	=26	=26	=26	=26
*	*	*>B_verse	*>B_verse	*>B_verse	*>B_verse	*>B_verse
.	.	4.AM	A:maj (A C# E)	newline	106.002	voice
4r	.	.	.	.	.	.
.	.	4.AMM	A:maj7 (A C# E G#)	.	.	voice
16r	.	.	.	.	.	.
16E	I	.	.	.	.	.
8f#	_	.	.	.	.	.
8f#	cried	4.AM	A:maj6 (A C# E F#)	.	.	voice
8f#	a	.	.	.	.	.
=28	=28	=28	=28	=28	=28	=28
8f#	tear,	.	.	.	.	.
[4d	_	4.AM	A:maj (A C# E)	.	.	voice
4d]	_	.	.	.	.	.
=27	=27	=27	=27	=27	=27	=27
.	.	1.EMm	E:7 (E G# B D)	.	.	voice
8r	_	.	.	.	.	.
4.r	.	.	.	.	.	.
8B	be-	.	.	.	.	.
8c#	-cause	.	.	.	.	.
8d	we're	.	.	.	.	.
=29	=29	=29	=29	=29	=29	=29
16e	through	.	.	.	.	.
8f#	_	.	.	.	.	.
[8.e	_	.	.	.	.	.
4e]	_	.	.	.	.	.
=28	=28	=28	=28	=28	=28	=28
.	.	1.EMm	E:7 (E G# B D)	.	.	voice
8r	.	.	.	.	.	.
4.r	.	.	.	.	.	.
8e	Please	.	.	.	.	.
8e	make	.	.	.	.	.
8e	my	.	.	.	.	.
=30	=30	=30	=30	=30	=30	=30
2.a	dreams,	.	.	.	.	.
=29	=29	=29	=29	=29	=29	=29
.	.	4.AM	A:maj (A C# E)	.	.	voice
4r	_	.	.	.	.	.
.	.	4.AM	A:sus4 (A D E)	.	.	voice
[8f#	of	.	.	.	.	.
16f#]	_	.	.	.	.	.
16e	_	.	.	.	.	.
8f#	y-	2.AM	A:maj (A C# E)	.	.	voice
8eq	_	.	.	.	.	.
16.f#	-you	.	.	.	.	.
[32e	come	.	.	.	.	.
=31	=31	=31	=31	=31	=31	=31
16e]	_	.	.	.	.	.
[16d	true	.	.	.	.	.
4d_	_	.	.	.	.	.
4.d]	_	.	.	.	.	.
=30	=30	=30	=30	=30	=30	=30
.	.	2.AM	A:maj (A C# E)	newline	122.92	voice
16.r	.	.	.	.	.	.
16.r	.	.	.	.	.	.
16.a	Don't	.	.	.	.	.
16.e	_	.	.	.	.	.
8a	_	.	.	.	.	.
8a	make	2.AMm	A:7 (A C# E G)	.	.	voice
8a	me	.	.	.	.	.
=32	=32	=32	=32	=32	=32	=32
8eq	_	.	.	.	.	.
8f#	cry,	.	.	.	.	.
[4e	_	.	.	.	.	.
4.e]	_	.	.	.	.	.
=31	=31	=31	=31	=31	=31	=31
.	.	1.DM	D:maj (D F# A)	.	.	voice
4.r	_	.	.	.	.	.
8B	a	.	.	.	.	.
8c#	tear	.	.	.	.	.
8B	for	.	.	.	.	.
=33	=33	=33	=33	=33	=33	=33
16c#Q	you	.	.	.	.	.
16BQ	_	.	.	.	.	.
2.A	_	.	.	.	.	.
=32	=32	=32	=32	=32	=32	=32
.	.	2.AM	A:maj (A C# E)	.	.	voice
4.r	.	.	.	.	.	.
8eq	_	.	.	.	.	.
8.f#	Don't	.	.	.	.	.
.	.	2.EMm	E:7 (E G# B D)	.	.	voice
16.e	make	.	.	.	.	.
16.e	me	.	.	.	.	.
=34	=34	=34	=34	=34	=34	=34
8e	cry,	.	.	.	.	.
[4B	_	.	.	.	.	.
4.B]	_	.	.	.	.	.
=33	=33	=33	=33	=33	=33	=33
.	.	1.AM	A:maj (A C# E)	.	.	voice
4.r	_	.	.	.	.	.
8d	a	.	.	.	.	.
8c#	tear	.	.	.	.	.
8B	for	.	.	.	.	.
=35	=35	=35	=35	=35	=35	=35
16c#Q	you	.	.	.	.	.
16BQ	_	.	.	.	.	.
8%5A	_	.	.	.	.	.
=34	=34	=34	=34	=34	=34	=34
.	.	1.EMm	E:7 (E G# B D)	newline	139.847	voice
8r	.	.	.	.	.	.
2.r	.	.	.	.	.	.
*-	*-	*	*
.	.	.	.	.
1r;	r	.	.	r
=35	=35	=35	=35	=35
1.AM	A:maj (A C# E)	newline	147.096	voice
1r;	r	.	153.763	r
1r;	r	.	156.238	r
*-	*-	*-	*-	*-
!!!BillboardChartDate: 1959/02/09, 1959/02/02, 1959/02/02
!!!BillboardPeak: 6, 6, 6
!!!BillboardWeeksOnChart: 21, 21, 21
!!!COC: LaVern Baker
!!!ENC: Nathaniel Condit-Schultz
!!!EST: Awating manual error checking and editing.
!!!OTL: I Cried A Tear
!!!RDF**chordsym: original McGill chord annotation + (implied pitch class set, with bass pitch in first position)
!!!RDF**harmony: **recip + pitch class of root + harmonic quality
!!!RDF**leadinstrument: original McGill primary instrumentation annotation
!!!RDF**phrase: newline = linebreak in original McGill transcription
!!!RDF**timestamp: McGill audio timestamp in seconds
!!!RDT: 2017/01/12/
!!!SampleActualRank: 12, 19, 19
!!!SampleID#: 822, 954, 1166
!!!SampleTargetRank: 14, 20, 21
